X:1
T:Title
%%score { 1 | 2 }
L:1/8
M:3/4
K:Bb
V:1 treble nm="Grand Piano"
V:2 bass 
V:1
 z2 z2[Q:1/4=108] [DF]2 | [DF]3 [_DG] [CA]2 | [B,B]2 [B,F]2 [DB]2 | c2 B2 c2 | [Fd]2 [DB]2 [FB]2 | %5
 [GB]3 [FA] G2 | F2 B2 B2 | c2 [=EG]2 [Ed]2 | [Fc]4 [EF]2 | [DF]3 [_DG] [CA]2 | %10
 [B,B]2 [B,F]2 [DB]2 | c2 B2 c2 | [Fd]2 [DB]2 [FB]2 | [Gc]2 [GB]2 G2 | F2 [FB]2 [Ge]2 | d2 B2 c2 | %16
[M:2/4] [DB]4 |[M:1/4] B2 |[M:3/4] [Ge]3 [Ge] [Ge]2 | [Ge]2 [GB]2 [^Fc]2 | [Fd]2 [DB]2 e2 | %21
 d2 B2 d2 | c3 c d2 | c2 A2 F2 | B2 [=EA]2 [EG]2 | F4 F2 | [DF]3 [_DG] [CA]2 | %27
 [B,B]2 [B,F]2 [DB]2 | c2 B2 c2 | [Fd]2 [DB]2 [FB]2 | [Gc]2 [GB]2 G2 | F2 [FB]2 [Ge]2 | d2 B2 c2 | %33
[M:2/4] [DB]4 |] %34
V:2
 z2 z2 [B,,F,]2 | [B,,F,]3 [B,,=E,] [B,,_E,]2 | [B,,D,]2 [D,F,]2 [B,,F,]2 | %3
 [F,A,F]2 [F,G,F]2 [F,A,F]2 | [B,,B,]2 [B,,F,]2 [D,B,]2 | [E,B,]3 [E,B,] [G,B,E]2 | %6
 [B,D]2 [B,D]2 [B,D]2 | [G,B,=E]2 [C,B,]2 [C,B,]2 | [F,A,]4 [F,A,]2 | [B,,F,]3 [B,,=E,] [B,,_E,]2 | %10
 [B,,D,]2 [D,F,]2 [B,,F,]2 | [F,A,F]2 [F,G,F]2 [F,A,F]2 | [B,,B,]2 [B,,F,]2 [D,B,]2 | %13
 [E,B,]2 [E,B,]2 [G,B,E]2 | [B,D]2 [D,B,]2 [E,B,]2 | [F,B,F]2 [F,DF]2 [F,A,E]2 |[M:2/4] [B,,B,]4 | %17
[M:1/4] [B,_A]2 |[M:3/4] [E,B,]3 [E,B,] [E,B,]2 | [E,B,]2 [E,E]2 [E,B,]2 | %20
 [B,,B,]2 [B,,B,]2[K:treble] [B,G]2 | [B,F]2 [B,D]2 [B,F]2 | [A,CF]3 [A,CF][K:bass] [G,B,=E]2 | %23
 [F,A,F]2 [F,CF]2 [D,D]2 | [G,DF]2 [C,C]2 [C,B,]2 | [F,A,]4 [F,A,E]2 | %26
 [B,,F,]3 [B,,=E,] [B,,_E,]2 | [B,,D,]2 [D,F,]2 [B,,F,]2 | [F,A,F]2 [F,G,F]2 [F,A,F]2 | %29
 [B,,B,]2 [B,,F,]2 [D,B,]2 | [E,B,]2 [E,B,]2 [G,B,E]2 | [B,D]2 [D,B,]2 [E,B,]2 | %32
 [F,B,F]2 [F,DF]2 [F,A,E]2 |[M:2/4] [B,,B,]4 |] %34

